icons/24x24_calendar_today_outline.svg

<svg xmlns="http://www.w3.org/2000/svg" width="24" height="24" viewBox="0 0 24 24">
  <path fill-rule="evenodd" d="M21,13.9011769 C20.7787592,14.0290376 20.5703363,14.1874735 20.3808484,14.3764768 L19,15.7573245 L19,10 L5,10 L5,19 L11.5076375,19 C11.5571703,19.6946151 11.8476366,20.3753138 12.3790364,20.9067136 L12.4723229,21 L5,21 C3.8954305,21 3,20.1045695 3,19 L3,7 C3,5.8954305 3.8954305,5 5,5 L7,5 L7,4 C7,3.44771525 7.44771525,3 8,3 C8.55228475,3 9,3.44771525 9,4 L9,5 L15,5 L15,4 C15,3.44771525 15.4477153,3 16,3 C16.5522847,3 17,3.44771525 17,4 L17,5 L19,5 C20.1045695,5 21,5.8954305 21,7 L21,13.9011769 L21,13.9011769 Z M17.35725,23.0565 L13.79325,19.4925 C13.40225,19.1015 13.40225,18.4695 13.79325,18.0785 C14.18425,17.6875 14.81625,17.6875 15.20725,18.0785 L17.35725,20.2285 L21.79325,15.7925 C22.18425,15.4025 22.81625,15.4025 23.20725,15.7925 C23.59825,16.1835 23.59825,16.8165 23.20725,17.2065 L17.35725,23.0565 Z"/>
</svg>

<svg width="24" height="24" fill="none" xmlns="http://www.w3.org/2000/svg"><path fill-rule="evenodd" clip-rule="evenodd" d="M21 13.901a3.04 3.04 0 0 0-.62.476L19 15.756V10H5v9h6.508c.05.695.34 1.375.871 1.907l.093.093H5a2 2 0 0 1-2-2V7a2 2 0 0 1 2-2h2V4a1 1 0 0 1 2 0v1h6V4a1 1 0 1 1 2 0v1h2a2 2 0 0 1 2 2v6.901Zm-3.643 9.155-3.564-3.564a.999.999 0 1 1 1.414-1.414l2.15 2.15 4.436-4.436a1 1 0 0 1 1.414 1.414l-5.85 5.85Z" fill="#000"/></svg>
